X: 13428
T: Flog The Tory
R: jig
M: 6/8
K: Dmajor
fef d2 f|gfg e2 A|GAG cde|fed FGA|
fef d2 A|B^AB g2 e|cBA EGF|E3 D2 e:|
|:c>AA E>GG|FAA fed|c>AA E>GA|FDB A2 ^G|
GAG ecG|FEF AFA|Bgf edc|e>fe d3:|

